AL:d=4,o=5,b=180:a5,p,a5,p,a5,p,a5,p,a5,p,a5,p,a5,p,a5,p,a5,p,a5,p,a5,p,a5,p,a5,p,a5,p,a5,p,a5,p,a5,p,a5,p,a5,p,a5,p,a5
BG:d=4,o=5,b=125:8g#,8e,8g#,8c#6,a,p,8f#,8d#,8f#,8b,g#,8f#,8e,p,8e,8c#,f#,c#,p,8f#,8e,g#,f#,8g#,8e,8g#,8c#6,a,p,8f#,8d#,8f#,8b,g#,8f#,8e,p,8e,8c#,f#,c#,p,8f#,8e,g#,f#,8g#,8e,8g#,8c#6,a,p,8f#,8d#,8f#,8b,g#,8f#,8e,p,8e,8c#,f#,c#,p,8f#,8e,g#,f#
SW:d=4,o=5,b=180:8f,8f,8f,2a#.,2f.6,8d#6,8d6,8c6,2a#.6,f.6,8d#6,8d6,8c6,2a#.6,f.6,8d#6,8d6,8d#6,2c6,p,8f,8f,8f,2a#.,2f.6,8d#6,8d6,8c6,2a#.6,f.6,8d#6,8d6,8c6,2a#.6,f.6,8d#6,8d6,8d#6,2c6
CD:d=4,o=5,b=125:p,8p,16b,16a,b,e,p,8p,16c6,16b,8c6,8b,a,p,8p,16c6,16b,c6,e,p,8p,16a,16g,8a,8g,8f#,8a,g.,16f#,16g,a.,16g,16a,8b,8a,8g,8f#,e,c6,2b.,16b,16c6,16b,16a,1b
5S:d=4,o=5,b=180:8f,8f,8f,1c#,8p,8d#,8d#,8d#,1c,8p,8f,8f,8f,8c#,8f#,8f#,8f#,8f,8c#6,8c#6,8c#6,2a#,8p,8f,8f,8f,8c,8f#,8f#,8f#,8f,8d#6,8d#6,8d#6,1c6,8f6,8f6,8d#6,8c#6,8c#,8c#,8d#,8f,8f6,8f6,8d#6,8c#6,8c#,8c#,8d#,8f,8f6,8f6,8d#6,c#6,p,a#,p,2f6
HP:d=16,o=5,b=125:8b,8e.6,g6,8f#6,4e6,8b6,4a.6,4f#.6,8e.6,g6,8f#6,4d6,8f6,2b,8p,8b,8e.6,g6,8f#6,4e6,8b6,4d7,8c#7,4c7,8g#6,8c.7,b6,8a#6,4f#6,8g6,2e6,8p,8g6,4b6,8g6,4b6,8g6,4c7,8b6,4a#6,8f#6,8g.6,b6,8a#6,4a#,8b,2b6,8p
PP:d=4,o=5,b=160:8d#,8e,2p,8f#,8g,2p,8d#,8e,16p,8f#,8g,16p,8c6,8b,16p,8d#,8e,16p,8b,2a#,2p,16a,16g,16e,16d,2e
NT:d=4,o=5,b=225:8e6,8d6,f#,g#,8c#6,8b,d,e,8b,8a,c#,e,2a
IM:d=4,o=5,b=80:8d.,8d.,8d.,8a#4,16f,8d.,8a#4,16f,d.,32p,8a.,8a.,8a.,8a#,16f,8c#.,8a#4,16f,d.,32p,8d.6,8d,16d,8d6,32p,8c#6,16c6,16b,16a#,8b,32p,16d#,8g#,32p,8g,16f#,16f,16e,8f,32p,16a#4,8c#,32p,8a#4,16c#,8f.,8d,16f,a.,32p,8d.6,8d,16d,8d6,32p,8c#6,16c6,16b,16a#,8b,32p,16d#,8g#,32p,8g,16f#,16f,16e,8f,32p,16a#4,8c#,32p,8a#4,16f,8d.,8a#4,16f,d.
CF:d=4,o=5,b=125:g,8a#.,16g,16p,16g,8c6,8g,8f,g,8d.6,16g,16p,16g,8d#6,8d6,8a#,8g,8d6,8g6,16g,16f,16p,16f,8d,8a#,2g,p,16f6,8d6,8c6,8a#,g,8a#.,16g,16p,16g,8c6,8g,8f,g,8d.6,16g,16p,16g,8d#6,8d6,8a#,8g,8d6,8g6,16g,16f,16p,16f,8d,8a#,2g